!!!!SEGMENT: pl-sa--288-a-vii-48--005_lechleitner-ferdinand-simon--litania-de-b-v-mariae-salus-infirmorum.krn
!!!id: 17xx:440
!!!COM: Lechleitner, Ferdinand Simon
!!!COM-rism: pe30001903
!!!CDT:
!!!CNT:
!!!OTL: Litania de B.V. Mariae – Salus infirmorum
!!!PDT: 1741
!!!SMS-siglum: PL-SA
!!!SMS-shelfmark: 288/A VII 48
!!!NIFC-rismID: 1001039077
!!!URL-scan: http://bc.bdsandomierz.pl/dlibra/publication/1784/edition/1752/content
!!!ONB-nifc: UWAGA: części Litanii: Kyrie, Sancta Maria, Virgo prudentissima,
**kern	**fba	**kern	**kern	**kern	**text	**kern	**text	**kern	**text	**kern	**text	**kern	**kern
*part9	*	*part8	*part7	*part6	*part6	*part5	*part5	*part4	*part4	*part3	*part3	*part2	*part1
*staff9	*	*staff8	*staff7	*staff6	*staff6	*staff5	*staff5	*staff4	*staff4	*staff3	*staff3	*staff2	*staff1
*I"[Viola Baſso]	*	*I"Violino 2do	*I"Violino 1mo	*I"Baſso	*	*I"Tenore	*	*I"Alto	*	*I"Canto	*	*I"Clarino 2do Ex. B.	*I"Clarino 1mo Ex. B.
*I'vla basso	*	*I'vno II	*I'vno I	*I'B	*	*I'T	*	*I'A	*	*I'C	*	*I'clno II	*I'clno I
*clefF4	*	*clefG2	*clefG2	*clefF4	*	*clefC4	*	*clefC3	*	*clefC1	*	*clefG2	*clefG2
*	*	*	*	*	*	*	*	*	*	*	*	*ITrd1c2	*ITrd1c2
*k[b-e-]	*	*k[b-e-]	*k[b-e-]	*k[b-e-]	*	*k[b-e-]	*	*k[b-e-]	*	*k[b-e-]	*	*k[b-e-]	*k[b-e-]
*B-:	*	*B-:	*B-:	*B-:	*	*B-:	*	*B-:	*	*B-:	*	*	*
*M4/4	*	*M4/4	*M4/4	*M4/4	*	*M4/4	*	*M4/4	*	*M4/4	*	*M4/4	*M4/4
*met(c)	*	*met(c)	*met(c)	*met(c)	*	*met(c)	*	*met(c)	*	*met(c)	*	*met(c|)	*met(c|)
=1	=1	=1	=1	=1	=1	=1	=1	=1	=1	=1	=1	=1	=1
!LO:TX:b:t=Salus	!	!LO:TX:a:t=P:problem:przy kluczu bemole w odwrotnej kolejności (najpierw e-)	!	!LO:TX:a:t=P:problem:wszystkie caudy z prawej strony	!	!LO:TX:a:t=P:problem:wszystkie caudy z prawej strony	!	!LO:TX:a:t=P:problem:wszystkie caudy z prawej strony	!	!LO:TX:a:t=P:problem:bemol e- na wysokości ee na wszystkich pięcioliniach	!	!	!
!LO:TX:a:t=Adagio	!	!LO:TX:b:i:t=Salus.	!LO:TX:b:i:t=Salus	!LO:TX:a:t=Adagio	!	!LO:TX:a:t=Adagio	!	!LO:TX:a:t=adagio	!	!LO:TX:a:t=P:problem:wszystkie caudy z prawej strony	!	!LO:TX:b:i:t=Salus	!LO:TX:b:i:t=Salus
!LO:TX:a:t=P:problem:przy kluczu dodatkowy bemol na wysokości B	!	!	!	!LO:TX:a:t=P:problem:przy kluczu dodatkowy bemol na wysokości B, na kolejnej pięciolinii na wysokości A	!	!	!	!	!	!	!	!	!
!LO:TX:a:t=P:problem:wszystkie caudy z prawej strony	!	!	!	!	!	!	!	!	!	!	!	!	!
8G\L	-	00r	00r	4.G\	Sa-	4.B-\	Sa-	4.g\	Sa-	4.dd\	Sa-	00r	00r
8G\	.	.	.	.	.	.	.	.	.	.	.	.	.
!LO:TX:a:t=ſrocaro	!	!	!	!	!	!	!	!	!	!	!	!	!
8G\	.	.	.	.	.	.	.	.	.	.	.	.	.
8G\J	.	.	.	8G\	-lus	8B-\	-lus	8g\	-lus	8dd\	-lus	.	.
8A\L	.	.	.	4A\	in-	4e-\	In-	8g\L	in-	4cc\	In-	.	.
8A\	.	.	.	.	.	.	.	16a\L	.	.	.	.	.
.	.	.	.	.	.	.	.	16g\JJ	.	.	.	.	.
8A\	6	.	.	4A\	-fir-	4c\	-fir-	4f#X\	-fir-	4cc\	-fir-	.	.
8A\J	.	.	.	.	.	.	.	.	.	.	.	.	.
=2	=2	=2	=2	=2	=2	=2	=2	=2	=2	=2	=2	=2	=2
8B-\L	6	.	.	4B-\	-mo-	4d\	-mo-	4g\	-mo-	4b-\	-mo-	.	.
8B-\	.	.	.	.	.	.	.	.	.	.	.	.	.
8B-\	.	.	.	8B-\	-rum	8d\	-rum	8g\	-rum	8b-\	-rum	.	.
8B-\J	.	.	.	8B-\	Re-	8d\	Re-	8d\	Re-	8b-\	Re-	.	.
8A\L	7	.	.	8A\	-fu-	8c\	-fu-	8g\	-fu-	8cc\	-fu-	.	.
8A\J	.	.	.	16A\	-gi-	16c\	-gi-	16g\	-gi-	16cc\	-gi-	.	.
.	.	.	.	16A\	-um	16c\	-um	16g\	-um	16cc\	-um	.	.
8D/L	#	.	.	8D/	pec-	8A/	pec-	8f#X\	pec-	8cc\	pec-	.	.
8D/J	7	.	.	8D/	-ca-	8A/	-ca-	8f#\	-ca-	8cc\	-ca-	.	.
!LO:LB:g=original	!	!	!	!	!	!	!	!	!	!LO:LB:g=original	!	!	!
=3	=3	=3	=3	=3	=3	=3	=3	=3	=3	=3	=3	=3	=3
*	*	*	*	*	*	*	*	*2\right	*	*	*	*	*
8GG/L	.	.	.	8GG/L	-to-	(4.B-\	-to-	2g\	-to-	(8b-\L	-to-	.	.
8AA/	.	.	.	8AA/	.	.	.	.	.	8cc\J)	.	.	.
8BB-/	.	.	.	8BB-/	.	.	.	.	.	(8dd\L	.	.	.
8C/J	.	.	.	8C/J	.	8e-\)	.	.	.	16cc\L	.	.	.
.	.	.	.	.	.	.	.	.	.	16b-\JJ)	.	.	.
4D/	.	.	.	4D/	-rum	4d\	-rum	16g\LL	.	4a\	-rum	.	.
.	.	.	.	.	.	.	.	16f#X\JJ	.	.	.	.	.
.	.	.	.	.	.	.	.	8f#,<\	-rum	.	.	.	.
4r	.	.	.	4r	.	8d\	Con-	8f#\	Con-	8a\	Con-	.	.
.	.	.	.	.	.	8d\	-so-	8f#\	-so-	8a\	-so-	.	.
=4	=4	=4	=4	=4	=4	=4	=4	=4	=4	=4	=4	=4	=4
4r	.	.	.	4r	.	8d\	-la-	16g\LL	-la-	16b-\LL	-la-	.	.
.	.	.	.	.	.	.	.	16f#X\JJ	.	16a\JJ	.	.	.
.	.	.	.	.	.	8d\	-trix	8f#\	-trix	8a\	-trix	.	.
8BBn/L	-7	.	.	8BBn/	Con-	8d\	af-	8fn\	Af-	8a-X\	Af-	.	.
8BB/J	.	.	.	8BB/	-so-	8d\	-flic-	8f\	-fli-	8a-\	-flic-	.	.
!	!	!	!	!	!	!	!	!LO:LB:g=original	!	!	!	!	!
8C/L	.	.	.	8C/	-la-	4c\	-to-	4e-\	-cto-	4g/	-to-	.	.
8C/	-	.	.	8C/	-trix	.	.	.	.	.	.	.	.
!	!	!	!	!	!	!LO:LB:g=original	!	!	!	!	!	!	!
8C/	.	.	.	8rBB	.	8c\	-rum	8e-\	-rum	8g/	-rum	.	.
8C/J	.	.	.	8C/	Au-	8c\	au-	8g\	Au-	8cc\	Au-	.	.
=5	=5	=5	=5	=5	=5	=5	=5	=5	=5	=5	=5	=5	=5
8AA/L	6: -5:	00r	00r	8AA/	-xi-	8c\	-xi-	8f\	-xi-	8ee-\	-xi-	00r	00r
8AA/	.	.	.	16AA/	-li-	16c\	-li-	16f\	-li-	16ee-\	-li-	.	.
.	.	.	.	16AA/	-um	16c\	-um	16f\	-um	16ee-\	-um	.	.
!	!	!	!	!LO:LB:g=original	!	!	!	!	!	!	!	!	!
8AA/	.	.	.	8AA/	Chris-	8c\	Chris-	8f\	Chris-	8ee-\	Chris-	.	.
8AA/J	.	.	.	16AA/	-ti-	16c\	-ti-	16f\	-ti-	16ee-\	-ti-	.	.
.	.	.	.	16AA/	-a-	16c\	-a-	16f\	-a-	16ee-\	-a-	.	.
8BB-/L	.	.	.	8BB-/	-no-	8B-\	-no-	8f\	-no-	8dd\	-no-	.	.
8BB-/J	.	.	.	8BB-/	-rum	8B-\	-rum	8f,<\	-rum	8dd\	-rum	.	.
8D/L	6	.	.	8D/	O-	8B-\	O-	8f\	O-	8dd\	O-	.	.
8D/J	.	.	.	8D/	-ra	8B-\	-ra	8f\	-ra	8dd\	-ra	.	.
=6	=6	=6	=6	=6	=6	=6	=6	=6	=6	=6	=6	=6	=6
8E-\L	.	.	.	4E-\	o-	4e-\	o-	(8g\L	O-	4b-\	O-	.	.
8E-\J	.	.	.	.	.	.	.	8e-\J)	.	.	.	.	.
8D\L	6	.	.	8D/	-ra	8B-\	-ra	8f\	-ra	8b-\	-ra	.	.
8En\J	6 5	.	.	8En\	pro	8c\	pro	8g\	pro	8b-\	pro	.	.
!	!	!	!	!	!	!	!	!	!	!LO:LB:g=original	!	!	!
*	*	*	*	*	*	*2\right	*	*	*	*	*	*	*
8F\L	.	.	.	(4F\	no-	2c\	no-	(4c/	no-	8b-\L	no-	.	.
8F\J	5 4:3	.	.	.	.	.	.	.	.	16cc\L	.	.	.
.	.	.	.	.	.	.	.	.	.	16b-\JJ	.	.	.
8FF/L	.	.	.	4FF/)	.	.	.	4f\)	.	4a\	.	.	.
8FF/J	.	.	.	.	.	.	.	.	.	.	.	.	.
=7	=7	=7	=7	=7	=7	=7	=7	=7	=7	=7	=7	=7	=7
4BB-/	.	.	.	4BB-,</	-bis	4d\	-bis	4f\	-bis	4b-\	-bis	.	.
4r	.	.	.	4BB-/	o-	4B-\	o-	4d\	O-	4f/	O-	.	.
2r	.	.	.	4BB-/	-ra	4B-\	-ra	4e-\	-ra	4g-X/	-ra	.	.
.	.	.	.	4BB-/	pro	4B-\	pro	4d\	pro	4f/	pro	.	.
=8	=8	=8	=8	=8	=8	=8	=8	=8	=8	=8	=8	=8	=8
2r	.	.	.	2BB-/	no-	2B-\	no-	4.e-\	no-	4.gn\	no-	.	.
.	.	.	.	.	.	.	.	(16f\LL	.	16a\LL	.	.	.
.	.	.	.	.	.	.	.	16e-\JJ)	.	16g\JJ	.	.	.
2BB-/	.	.	.	2BB-/	-bis	2B-\	-bis	2d\	-bis.	2f/	-bis	.	.
==	==	==	==	==	==	==	==	==	==	==	==	==	==
*-	*-	*-	*-	*-	*-	*-	*-	*-	*-	*-	*-	*-	*-
!!!system-decoration: [(s1,s2)][(s3,s4,s5,s6)][(s7,s8)]s9
!!!RDF**kern: < = below
!!!ENC: Zofia Niedbalska
!!!END: 2020-11-06
!!!ENC: Marcin Jachim
!!!END: 2020-05-03
